icon-themes/colibre_svg/sd/res/pubdes2.svg

<svg viewBox="0 0 90 90" xmlns="http://www.w3.org/2000/svg"><path d="m21 22v58h62v-58z" fill="#fafafa" stroke-width="3.2"/><path d="m18 19v64h68v-64zm3 3h62v58h-62z" fill="#3a3a38" stroke-width="3.2"/><path d="m16 6.998267h72v6h-72z" fill="#1e8bcd" stroke-width="3"/><path d="m26 32h53v6h-53z" fill="#fb983b" stroke-width="3.2"/><g fill="#3a3a38"><path d="m25 44h3v3h-3z" stroke-width="3"/><g stroke-width="3.2"><path d="m25 54h3v3h-3z"/><path d="m25 63h3v3h-3z"/><path d="m32 44h36v3h-36z"/><path d="m32 63h16v3h-16z"/><path d="m32 54h19v3h-19z"/></g></g><g stroke-width="3.125"><path d="m4 19v61h7v-61z" fill="#fafafa"/><path d="m1 7v76h13v-76zm3 12h7v61h-7z" fill="#1e8bcd"/></g></svg>

<svg viewBox="0 0 90 90" xmlns="http://www.w3.org/2000/svg">
  <path
     style="fill:#ffffff;stroke-width:3.2"
     d="M 21,22 V 80 L 83,80 83,22 Z"
     />
  <path
     style="fill:#808080;stroke-width:3.2"
     d="m 18,19 v 64 h 68 v 0 -64 z m 3,3 H 83 V 80 H 21 Z"
     />
  <path
     style="fill:#4d82b8;stroke-width:3"
     d="m 16,6.998267 h 72 v 6 H 16 Z"
     />
  <path
     style="fill:#eac282;stroke-width:3.2"
     d="m 26,32 h 53 v 6 H 26 Z"
     />
  <path
     style="fill:#808080;stroke-width:3"
     d="m 25,44 h 3 v 3 h -3 z"
     />
  <path
     style="fill:#808080;stroke-width:3.2"
     d="m 25,54 h 3 v 3 h -3 z"
     />
  <path
     style="fill:#808080;stroke-width:3.2"
     d="m 25,63 h 3 v 3 h -3 z"
     />
  <path
     style="fill:#808080;stroke-width:3.2"
     d="m 32,44 h 36 v 3 H 32 Z"
     />
  <path
     style="fill:#808080;stroke-width:3.2"
     d="m 32,63 h 16 v 3 H 32 Z"
     />
  <path
     style="fill:#808080;stroke-width:3.2"
     d="m 32,54 h 19 v 3 H 32 Z"
     />
  <path
     style="fill:#ffffff;stroke-width:3.125"
     d="m 4,19 v 61 h 7 V 19 Z"
     />
  <path
     style="fill:#4d82b8;stroke-width:3.125"
     d="M 1,7 V 83 H 14 V 7 Z m 3,12 h 7 V 80 H 4 Z"
     />
</svg>
